dist/svg/static/climate-auto-small.svg

<svg xmlns="http://www.w3.org/2000/svg" width="24" height="24" viewBox="0 0 24 24"><g fill="none" stroke="currentColor"><path d="M0 23.5h24M17.999 20.502c2 0 4.501-1.906 4.501-5.502 0-3.53-3-5-3-7.998V.7"/><path d="M16 4.25L19.5.7 23 4.25M9.999 20.502c2 0 4.501-1.906 4.501-5.502 0-3.53-3-5-3-7.998V.7"/><path d="M9 3.252L11.5.7 14 3.252"/><g stroke-miterlimit="10"><path d="M4.5 10.5h-2M6.99 7.5H4.5M6.99 5.5H4.5M6.99 3.5H4.5M4.5 14.25V1.5a1 1 0 1 0-2 0v13.174a3.01 3.01 0 0 0-2 2.826 3 3 0 1 0 6 0 3.006 3.006 0 0 0-2-2.827v-.424z"/></g></g></svg>

<?xml version="1.0" encoding="UTF-8" standalone="no"?>
<svg width="24px" height="25px" viewBox="0 0 24 25" version="1.1" xmlns="http://www.w3.org/2000/svg" xmlns:xlink="http://www.w3.org/1999/xlink">
    <!-- Generator: sketchtool 46.2 (44496) - http://www.bohemiancoding.com/sketch -->
    <title>climate-auto-small</title>
    <desc>Created with sketchtool.</desc>
    <defs></defs>
    <g id="icons-published" stroke="none" stroke-width="1" fill="none" fill-rule="evenodd">
        <g id="briefing" transform="translate(-2948.000000, -282.000000)"></g>
        <g id="climate-auto-small" stroke="#000000">
            <path d="M0,23.5 L24,23.5 M18,20.5 C20,20.5 22.5,18.6 22.5,15 C22.5,11.5 19.5,10 19.5,7 L19.5,0.7" id="Shape"></path>
            <path d="M16,4.2 L19.5,0.7 L23,4.2 M10,20.5 C12,20.5 14.5,18.6 14.5,15 C14.5,11.5 11.5,10 11.5,7 L11.5,0.7" id="Shape"></path>
            <polyline id="Shape" points="9 3.3 11.5 0.7 14 3.3"></polyline>
            <path d="M4.5,10.5 L2.5,10.5 L4.5,10.5 Z M7,7.5 L4.5,7.5 L7,7.5 Z M7,5.5 L4.5,5.5 L7,5.5 Z M7,3.5 L4.5,3.5 L7,3.5 Z M4.5,14.2 L4.5,1.5 C4.5,0.9 4.1,0.5 3.5,0.5 C2.9,0.5 2.5,0.9 2.5,1.5 L2.5,14.7 C1.3,15.1 0.5,16.3 0.5,17.5 C0.5,19.2 1.8,20.5 3.5,20.5 C5.2,20.5 6.5,19.2 6.5,17.5 C6.5,16.2 5.7,15.1 4.5,14.7 L4.5,14.2 L4.5,14.2 Z" id="Shape"></path>
        </g>
    </g>
</svg>
